X: 1
T: Korobeiniki
R: polka
M: 2/4
L: 1/8
K: Dmin
A2 EF|G2 TFE|D2 DF|A2 GF|
E3 F|G2 A2|F2 D2|D2 z2||
G2- GB|d2 cB|A3 F|A2 GF|
E2 EF|G2 A2|F2 D2|D2 z2||

